X:1
T: Burning Of The Piper's Hut, The
M: 4/4
L: 1/8
R: reel
%%printtempo 0
Q:90
K:Bm
|:F2| "Bm" Bcde f4 | {/g} fe(f<a) f2 ed | "A" c2 A2 e2 A2|cdef e2 dc|
"Bm" Bcde f4 | {/g} fe f>a f2 ed|"A" c2 A2 "F#m" f2 ed | "Bm" {/d} c2 B2 B2 :|
|:f2 | "Bm" Bcde f>B B<B | a>B B<B f2 ed | "A" c2 A2 e2 A2 | cdef e2 dc |
"Bm" Bcde f>B (3BBB | a>B (3BBB f2 ed | "A" {AB}c2 A2 "F#m" f2 ed | "Bm" c2 {dc} B2 B2 :|
